X: 14
T: Marchesana
N: Drone: F/C
K: F major
M: 4/4
L: 1/8
M: 4/4
P: A (3x)
"^Quadernaria"c2cd c2cd | e2d2 c2c2 "^(3)":| c2cd c2cB | AFGG F2F2 |: \
P: B
c2cd c2cc | c2c2 F2z2 :| 
M: 6/4P: C
"^Bassadanza"G4G2 GABcde | d4d2 ABcdef | f2d2A2 A4GF | E2G2E2 G4GA | Bcdefg g2d2Bd | c4c2 A4F2 | 
G4B2 B2d2B2 | d4B2 G2B2G2 | A4A2 F2A2F2 | G4C2 E2G2E2 | F2A2F2 FGABc2 | B2d2B2 GABcd2 | 
A4A2 F6 |: \
M: 4/4
P: D
"^Quadernaria"c2z2 c2z2 | c3/B/A3/G/ F2F2 :| F2A2 G2F2 | F2z6 |] 

